src/lib/packages/icons/src/assets/line/message-activity.svg

<svg width="24" height="24" viewBox="0 0 24 24" fill="none" xmlns="http://www.w3.org/2000/svg">
<path d="M3 21.75C2.903 21.75 2.80589 21.731 2.71289 21.693C2.43289 21.577 2.25 21.303 2.25 21V6C2.25 3.582 3.582 2.25 6 2.25H18C20.418 2.25 21.75 3.582 21.75 6V15C21.75 17.418 20.418 18.75 18 18.75H6.31104L3.53101 21.53C3.38701 21.674 3.195 21.75 3 21.75ZM6 3.75C4.423 3.75 3.75 4.423 3.75 6V19.189L5.46997 17.469C5.61097 17.328 5.801 17.249 6 17.249H18C19.577 17.249 20.25 16.576 20.25 14.999V5.99902C20.25 4.42202 19.577 3.74902 18 3.74902H6V3.75ZM8.53003 12.63L10.834 10.3979L12.105 11.667C12.397 11.959 12.786 12.119 13.199 12.119C13.2 12.119 13.2 12.119 13.2 12.119C13.614 12.119 14.0039 11.957 14.2949 11.665L16.53 9.43005C16.823 9.13705 16.823 8.66202 16.53 8.36902C16.237 8.07602 15.762 8.07602 15.469 8.36902L13.1631 10.604L11.8921 9.33496C11.2881 8.73196 10.3049 8.73306 9.70093 9.33606L7.46899 11.568C7.17599 11.861 7.17599 12.336 7.46899 12.629C7.61499 12.775 7.80702 12.849 7.99902 12.849C8.19102 12.849 8.38403 12.777 8.53003 12.63Z" fill="currentColor"/>
</svg>

<svg xmlns="http://www.w3.org/2000/svg" width="24" height="24" fill="none"><path fill="currentColor" d="M3 21.75a.75.75 0 0 1-.75-.75V6c0-2.418 1.332-3.75 3.75-3.75h12c2.418 0 3.75 1.332 3.75 3.75v9c0 2.418-1.332 3.75-3.75 3.75H6.311l-2.78 2.78a.75.75 0 0 1-.531.22Zm3-18c-1.577 0-2.25.673-2.25 2.25v13.189l1.72-1.72a.749.749 0 0 1 .53-.22h12c1.577 0 2.25-.673 2.25-2.25v-9c0-1.577-.673-2.25-2.25-2.25H6v.001Zm2.53 8.88 2.304-2.232 1.271 1.269c.292.292.681.452 1.094.452h.001c.414 0 .804-.162 1.095-.454L16.53 9.43a.75.75 0 0 0-1.061-1.061l-2.306 2.235-1.27-1.269a1.553 1.553 0 0 0-2.192.001l-2.232 2.232A.75.75 0 0 0 8.53 12.63Z"/></svg>
